X: 731
T: Earl Marshal's Reel
R: reel
B: Robert Bremner "A Collection of Scots Reels or Country Dances" 1757 p.73 #1
S: http://imslp.org/wiki/A_Collection_of_Scots_Reels_or_Country_Dances_(Bremner,_Robert)
Z: 2013 John Chambers <jc:trillian.mit.edu>
M: C
L: 1/8
K: F
% - - - - - - - - - - - - - - - - - - - - - - - - -
V: 1
|:\
F2FA cAAc | (A/B/c) FA cAAf |\
F2FA cAAc | (d/e/f) TcA G/G/G G2 :|
|:\
(f/g/a) fc d2-df | cfAf cfAf |\
(a/g/f/e/) fc d2-df | cAfd TcAGA :|
% - - - - - - - - - - - - - - - - - - - - - - - - -
V: 2 clef=bass middle=d
|:\
f2f2 f2f2 | F2F2 F2F2 |\
f2f2 f2f2 | f2f2 g2g2 :|
|:\
f2f2 f2f2 | F2F2 F2F2 |\
f2f2 f2f2 | f2f2 g2g2 :|
% - - - - - - - - - - - - - - - - - - - - - - - - -

%%sep 1 1 500
%%sep 1 1 500
